X:1
T:Peace upon Earth
T:Peace upon Earth
T:Robert Lowry
T:Julia A. Mathews, 1871
T:Public Domain Courtesy of the Cyber Hymnal™
C:Robert Lowry
Z:Public Domain
Z:Courtesy of the Cyber Hymnal™
%%score ( 1 2 ) ( 3 4 )
L:1/8
Q:1/4=93
M:6/8
K:C
V:1 treble 
V:2 treble 
V:3 bass 
V:4 bass 
V:1
 [EG][CE][EA] [Ec]2 [FA] | [EG]2 [CE] [B,D]2 [B,D] | [DF][CE][DF] [FA]2 [FG] | [EG]2 [CE] [EG]3 | %4
w: 1.~“Peace up- on earth!” the|an- gels sang, “Good|will un- to men!” the|cho- rus rang,|
w: 2.~“Peace up- on earth!” ’tis|sound- ing still, “Glo-|ry un- to God, to|men good will!”|
w: 3.~“Je- sus has come!” it|e- choes wide, Thro’|val- ley and plain, on|mount- ain- side;|
w: 4.~Yes! let them sing, for|Christ has laid His|hand with a bless- ing|on their head;|
 [Gc][GB][Gc] [FA]2 [FA] | [^Fd]2 [Ac] [GB]2 [=FG] | [Ec]2 [EG] [GB][FA][CG] | %7
w: “Glo- ry to God!” the|Christ has come, His|bright star shines in the|
w: Beth- le- hem’s song, ’tis|caught from far, And|lift- ed up, to that|
w: But not a- lone the|an- gels sing, For|ev- en child- ren the|
w: Sweet- er to Him than|an- gels’ tones Are|songs that come from His|
 ([DF][CE])[B,D] C3 ||"^Refrain" [EG][EG][EG] [Ec]3 | [Gc][Gc][Gc] [Gd]3 | [Gd][Gd][Gd] [Ge]3 | %11
w: clear * blue dome.||||
w: glow- * ing star.|Joy- ous- ly sing,|joy- ous- ly sing,|Joy- ous- ly sing,|
w: an- * them ring.||||
w: lit- * tle ones.||||
 [Ge][Gd][Gc] [Gd]3 | [Ge]3 (dc)[FA] | [EG]3 [Gc]2 [Ad] | [Ge]3 [Fd]3 | [Ec]6 |] %16
w: |||||
w: joy- ous- ly sing!|Shout hal- * le-|lu- jah to|Christ, our|king!|
w: |||||
w: |||||
V:2
 x6 | x6 | x6 | x6 | x6 | x6 | x6 | x3 C3 || x6 | x6 | x6 | x6 | x3 F2 x | x6 | x6 | x6 |] %16
V:3
 [C,G,][C,G,][C,G,] [C,G,]2 [C,C] | [C,C]2 [C,G,] [G,,G,]2 [G,,G,] | %2
w: ~ ~ ~ ~ ~|~ ~ ~ ~|
 [G,,G,][G,,G,][G,,G,] [G,,G,]2 [G,,G,] | [C,C]2 [C,G,] [C,C]3 | [C,E][D,D][E,C] [F,C]2 [F,C] | %5
w: ~ ~ ~ ~ ~|~ ~ ~|~ ~ ~ ~ ~|
 [D,D]2 [D,D] [G,D]2 [G,B,] | [C,C]2 [C,C] [F,C][F,C][E,C] | ([F,A,] G,)[G,,F,] [C,E,]3 || %8
w: ~ ~ ~ ~|~ ~ ~ ~ ~|~ * ~ ~|
 [C,C][C,C][C,C] [C,G,][C,G,][C,G,] | [E,C][E,C][E,C] [G,B,][G,B,][G,B,] | [G,B,][G,B,][G,B,] CCC | %11
w: ~ ~ ~ Joy- ously, ~|~ ~ ~ Joy- ous- ly||
 C[G,B,][E,C] [G,B,]3 | [C,C]3 [F,A,]2 [F,C] | [C,C]3 [E,C]2 [F,C] | [G,C]3 [G,,B,]3 | [C,C]6 |] %16
w: |||||
V:4
 x6 | x6 | x6 | x6 | x6 | x6 | x6 | x G, x4 || x6 | x6 | x3 CCC | C x5 | x6 | x6 | x6 | x6 |] %16

